X: 37
M:2/4
L:1/16
K:D
vDAFA DAFA|dAfA eAfA|gAFa edcd|edcB AGFE|
|:v.eAAA .fAAA|.gAAA .fAAA|eAfA gAfA|edcB AGFE|
.Dddd .ceee|.dfff .eggg|fgaf bgec|d2d2d2 z2:|


